fs/building_retail_toolbox_20_regular.svg

<svg viewBox="0 0 20 20" fill="none" xmlns="http://www.w3.org/2000/svg" height="1em" width="1em">
  <path d="M2 4.5C2 3.67157 2.67157 3 3.5 3H16.5C17.3284 3 18 3.67157 18 4.5C18 5.15311 17.5826 5.70873 17 5.91465V9.49982C16.7093 9.28146 16.3694 9.125 16 9.05001V6H4V16H5V12.5C5 12.2239 5.22386 12 5.5 12H9.49982C9.18597 12.4178 9 12.9372 9 13.5V13H6V16H9V17H3.5C3.22386 17 3 16.7761 3 16.5V5.91465C2.4174 5.70873 2 5.15311 2 4.5ZM3.5 4C3.22386 4 3 4.22386 3 4.5C3 4.77614 3.22386 5 3.5 5H16.5C16.7761 5 17 4.77614 17 4.5C17 4.22386 16.7761 4 16.5 4H3.5ZM15 7.5V9H14V8H6V10H11.4998C11.2815 10.2907 11.125 10.6306 11.05 11H5.5C5.22386 11 5 10.7761 5 10.5V7.5C5 7.22386 5.22386 7 5.5 7H14.5C14.7761 7 15 7.22386 15 7.5ZM12 12V11.5C12 10.6716 12.6716 10 13.5 10H15.5C16.3284 10 17 10.6716 17 11.5V12H17.5C18.3284 12 19 12.6716 19 13.5V15H17V14.5C17 14.2239 16.7761 14 16.5 14C16.2239 14 16 14.2239 16 14.5V15H13V14.5C13 14.2239 12.7761 14 12.5 14C12.2239 14 12 14.2239 12 14.5V15H10V13.5C10 12.6716 10.6716 12 11.5 12H12ZM13 11.5V12H16V11.5C16 11.2239 15.7761 11 15.5 11H13.5C13.2239 11 13 11.2239 13 11.5ZM17 16.5V16H19V17.5C19 18.3284 18.3284 19 17.5 19H11.5C10.6716 19 10 18.3284 10 17.5V16H12V16.5C12 16.7761 12.2239 17 12.5 17C12.7761 17 13 16.7761 13 16.5V16H16V16.5C16 16.7761 16.2239 17 16.5 17C16.7761 17 17 16.7761 17 16.5Z" fill="#212121"/>
</svg>

<svg viewBox="0 0 20 20" fill="none" xmlns="http://www.w3.org/2000/svg" height="1em" width="1em">
  <path d="M2 4.5A1.5 1.5 0 0 1 3.5 3h13a1.5 1.5 0 0 1 .5 2.915V9.5a2.489 2.489 0 0 0-1-.45V6H4v10h1v-3.5a.5.5 0 0 1 .5-.5h4c-.314.418-.5.937-.5 1.5V13H6v3h3v1H3.5a.5.5 0 0 1-.5-.5V5.915A1.5 1.5 0 0 1 2 4.5ZM3.5 4a.5.5 0 0 0 0 1h13a.5.5 0 0 0 0-1h-13ZM15 7.5V9h-1V8H6v2h5.5a2.49 2.49 0 0 0-.45 1H5.5a.5.5 0 0 1-.5-.5v-3a.5.5 0 0 1 .5-.5h9a.5.5 0 0 1 .5.5ZM12 12v-.5a1.5 1.5 0 0 1 1.5-1.5h2a1.5 1.5 0 0 1 1.5 1.5v.5h.5a1.5 1.5 0 0 1 1.5 1.5V15h-2v-.5a.5.5 0 0 0-1 0v.5h-3v-.5a.5.5 0 0 0-1 0v.5h-2v-1.5a1.5 1.5 0 0 1 1.5-1.5h.5Zm1-.5v.5h3v-.5a.5.5 0 0 0-.5-.5h-2a.5.5 0 0 0-.5.5Zm4 5V16h2v1.5a1.5 1.5 0 0 1-1.5 1.5h-6a1.5 1.5 0 0 1-1.5-1.5V16h2v.5a.5.5 0 0 0 1 0V16h3v.5a.5.5 0 0 0 1 0Z" fill="#212121"/>
</svg>
